dist/img/companies/ayax.svg

<svg width="137" height="49" viewBox="0 0 137 49" fill="none" xmlns="http://www.w3.org/2000/svg">
<path opacity="1" fill-rule="evenodd" clip-rule="evenodd" d="M119.193 0.378125C105.736 3.36225 102.021 21.5985 113.207 29.757C119.261 34.1712 126.922 33.823 132.881 28.8625C133.947 27.9756 137 23.7681 137 23.1869C137 23.0654 135.299 22.3303 133.22 21.5526C129.911 20.3151 129.409 20.1972 129.185 20.6058C128.084 22.6168 125.598 24.2488 123.193 24.54C119.739 24.9583 115.954 22.3562 114.966 18.8844C113.796 14.7699 115.748 10.5168 119.553 8.89222C121.141 8.21392 124.16 8.32422 125.717 9.11695C127.072 9.80702 128.232 10.7971 128.969 11.8934L129.403 12.5373L133.129 11.3416C135.179 10.6842 136.897 10.1097 136.947 10.0653C137.299 9.75378 135.127 6.48168 133.434 4.77033C129.463 0.759046 124.449 -0.787287 119.193 0.378125ZM27.4046 1.32204C27.2495 1.76709 24.6465 8.83074 21.6201 17.0189C18.5937 25.2074 16.1176 32.0575 16.1176 32.241C16.1176 32.4761 17.4356 32.5752 20.5552 32.5752H24.9927L25.7595 30.222L26.5262 27.8688H32.8109H39.0957L39.8624 30.222L40.6291 32.5752H49.6729H58.7163L61.374 27.1335L64.0317 21.6917H66.1154H68.1992L68.2775 27.0599L68.3561 32.4281L72.3136 32.5099L76.271 32.5917V16.5345V0.477252L66.7012 0.568732L57.1313 0.660212L55.5008 1.47853C53.4119 2.52717 51.628 4.34794 50.6825 6.39609C50.0269 7.81682 49.9359 8.38982 49.9359 11.1024C49.9359 13.6368 50.0462 14.4348 50.551 15.5505C51.3667 17.3534 52.9367 19.0891 54.5358 19.9563C55.251 20.344 55.8361 20.7717 55.8361 20.907C55.8361 21.1682 50.1633 31.686 49.8199 32.0616C49.7085 32.1834 46.9775 25.135 43.7511 16.3983L37.8845 0.513138H32.7856H27.6867L27.4046 1.32204ZM80.8761 16.5524V32.5917L84.8335 32.5099L88.791 32.4281L88.9349 27.5512L89.0788 22.6739L89.9422 21.6159C90.4171 21.0337 90.8782 20.5481 90.9666 20.5363C91.0552 20.5246 92.9839 23.2287 95.2527 26.5452L99.3782 32.5752H104.23C106.899 32.5752 109.082 32.5323 109.082 32.4796C109.082 32.4269 106.234 28.6216 102.753 24.0229C99.2726 19.4242 96.4232 15.5697 96.4212 15.4573C96.4195 15.3446 98.9808 12.1017 102.113 8.25068C105.245 4.39941 107.908 1.0829 108.03 0.880823C108.205 0.592264 107.201 0.513138 103.363 0.513138H98.4739L93.7762 6.98379L89.0788 13.4544L89.0014 6.98379L88.9239 0.513138H84.9H80.8761V16.5524ZM68.2122 11.1024V14.6322L64.6864 14.6257C61.8175 14.6204 60.9308 14.5128 59.9266 14.0469C57.749 13.0368 57.2418 10.3012 58.9336 8.69043C60.0351 7.6418 60.1347 7.6218 64.3986 7.59591L68.2122 7.57267V11.1024ZM34.8003 14.4116C35.8091 17.526 36.6947 20.2395 36.7681 20.4416C36.8711 20.7249 35.9694 20.8093 32.8417 20.8093C30.6086 20.8093 28.7804 20.7099 28.7789 20.5887C28.7737 20.1692 32.6676 8.75426 32.8167 8.75162C32.899 8.75044 33.7915 11.2972 34.8003 14.4116ZM0 40.6642V48.7533H9.43228H18.8648L19.7487 46.3266L20.6329 43.8999L12.7629 43.8216L4.89286 43.7434V38.1593V32.5752H2.44643H0V40.6642ZM80.8761 43.3116V48.7533H81.8834H82.8908V46.8413V44.9294H84.1718C84.8764 44.9294 86.1163 44.7838 86.9277 44.6061C88.1025 44.3484 88.5147 44.0946 88.9553 43.356C90.0487 41.5235 89.4003 39.0438 87.6299 38.2878C87.0045 38.0207 85.6077 37.8699 83.7634 37.8699H80.8761V43.3116ZM91.813 43.3116V48.7533L92.8923 48.7471C93.9429 48.741 94.0445 48.6383 96.7059 44.9L99.4401 41.0593L99.5204 44.9064L99.6007 48.7533H100.6H101.599V43.3116V37.8699H100.508C99.4447 37.8699 99.348 37.9652 96.6944 41.6202L93.9716 45.3706L93.8911 41.6202L93.8105 37.8699H92.8117H91.813V43.3116ZM106.06 38.3331C104.111 39.3721 103.725 40.2066 104.933 40.7693C105.583 41.0719 105.786 41.0222 106.538 40.3751C107.981 39.1347 110.34 39.4694 111.591 41.0919C112.373 42.1062 112.045 42.2821 109.37 42.2821H106.779V43.1645V44.0469H109.37C111.706 44.0469 111.96 44.1008 111.96 44.5955C111.96 45.4474 110.904 46.6166 109.796 46.9902C108.593 47.3961 107.365 47.1658 106.341 46.3422C105.718 45.8412 105.466 45.7927 104.888 46.0619C104.022 46.4654 104.014 46.7172 104.841 47.5114C106.955 49.5413 110.267 49.4896 112.54 47.3905C115.334 44.8111 114.654 40.0012 111.274 38.4326C109.812 37.7542 107.239 37.7051 106.06 38.3331ZM118.454 38.2375C118.394 38.4399 118.193 39.9936 118.006 41.6902C117.631 45.1041 117.195 46.4713 116.299 47.0431C115.927 47.2802 115.702 47.7329 115.702 48.2415C115.702 48.9824 115.776 49.0413 116.493 48.871C118.601 48.3712 119.293 47.1849 119.91 43.0174C120.126 41.5614 120.304 40.2048 120.305 40.0024C120.306 39.7462 120.874 39.6347 122.178 39.6347H124.048V44.194V48.7533H125.056H126.063V43.3116V37.8699H122.312C119.562 37.8699 118.533 37.9678 118.454 38.2375ZM128.366 38.7523C128.366 39.6259 128.382 39.6347 129.949 39.6347H131.532V44.194V48.7533H132.683H133.834V44.194V39.6347H135.417C136.984 39.6347 137 39.6259 137 38.7523V37.8699H132.683H128.366V38.7523ZM86.9202 40.223C87.2368 40.5466 87.4958 41.0761 87.4958 41.3996C87.4958 42.5506 86.4945 43.1645 84.6176 43.1645H82.8908V41.3996V39.6347H84.6176C85.9609 39.6347 86.4723 39.7653 86.9202 40.223Z" fill="#ed2824"/>
</svg>

<svg width="137" height="49" fill="none" xmlns="http://www.w3.org/2000/svg"><path fill-rule="evenodd" clip-rule="evenodd" d="M119.193.378c-13.457 2.984-17.172 21.22-5.986 29.379 6.054 4.414 13.715 4.066 19.674-.895 1.066-.886 4.119-5.094 4.119-5.675 0-.122-1.701-.857-3.78-1.634-3.309-1.238-3.811-1.356-4.035-.947-1.101 2.01-3.587 3.643-5.992 3.934-3.454.418-7.239-2.184-8.227-5.656-1.17-4.114.782-8.367 4.587-9.992 1.588-.678 4.607-.568 6.164.225 1.355.69 2.515 1.68 3.252 2.776l.434.644 3.726-1.195c2.05-.658 3.768-1.232 3.818-1.277.352-.311-1.82-3.583-3.513-5.295-3.971-4.01-8.985-5.557-14.241-4.392zm-91.788.944c-.155.445-2.759 7.509-5.785 15.697-3.026 8.188-5.502 15.038-5.502 15.222 0 .235 1.318.334 4.437.334h4.438l.767-2.353.766-2.353h12.57l.766 2.353.767 2.353h18.087l2.658-5.442 2.658-5.441h4.167l.079 5.368.078 5.368 3.958.082 3.957.082V.477l-9.57.092-9.57.091-1.63.819c-2.09 1.048-3.873 2.869-4.819 4.917-.655 1.42-.746 1.994-.746 4.706 0 2.535.11 3.333.615 4.448.816 1.803 2.386 3.54 3.985 4.406.715.388 1.3.816 1.3.951 0 .261-5.673 10.779-6.016 11.155-.111.121-2.843-6.927-6.069-15.664L37.885.513H27.687l-.282.809zm53.471 15.23v16.04l3.957-.082 3.958-.082.144-4.877.144-4.877.863-1.058c.475-.582.936-1.068 1.025-1.08.088-.011 2.017 2.693 4.286 6.01l4.125 6.03h4.852c2.669 0 4.852-.044 4.852-.096 0-.053-2.848-3.858-6.329-8.457-3.48-4.599-6.33-8.453-6.332-8.566-.002-.112 2.56-3.355 5.692-7.206 3.132-3.852 5.795-7.168 5.917-7.37.175-.289-.829-.368-4.667-.368h-4.89l-4.697 6.47-4.697 6.471L89 6.984l-.077-6.47h-8.048v16.038zm-12.664-5.45v3.53l-3.526-.006c-2.869-.006-3.755-.113-4.76-.58-2.177-1.01-2.684-3.745-.992-5.356 1.101-1.048 1.2-1.068 5.465-1.094l3.813-.023v3.53zM34.8 14.412a818.25 818.25 0 001.968 6.03c.103.283-.799.367-3.926.367-2.233 0-4.062-.1-4.063-.22-.005-.42 3.889-11.835 4.038-11.837.082-.002.974 2.545 1.983 5.66zM0 40.664v8.09h18.865l.884-2.427.884-2.427-7.87-.078-7.87-.079V32.575H0v8.09zm80.876 2.648v5.441h2.015V44.93h1.28c.705 0 1.945-.145 2.757-.323 1.175-.258 1.587-.511 2.027-1.25 1.094-1.833.445-4.312-1.325-5.068-.626-.267-2.022-.418-3.867-.418h-2.887v5.442zm10.937 0v5.441l1.08-.006c1.05-.006 1.151-.109 3.813-3.847l2.734-3.84.08 3.846.08 3.847h1.999V37.87h-1.091c-1.063 0-1.16.095-3.814 3.75l-2.722 3.75-.08-3.75-.081-3.75h-1.998v5.442zm14.247-4.979c-1.949 1.04-2.335 1.874-1.127 2.436.65.303.853.253 1.605-.394 1.443-1.24 3.802-.906 5.053.717.782 1.014.454 1.19-2.221 1.19h-2.591v1.765h2.591c2.336 0 2.59.054 2.59.549 0 .851-1.056 2.02-2.164 2.394-1.203.406-2.431.176-3.455-.648-.623-.5-.875-.55-1.453-.28-.866.403-.874.655-.047 1.45 2.114 2.03 5.426 1.978 7.699-.121 2.794-2.58 2.114-7.39-1.266-8.958-1.462-.679-4.035-.728-5.214-.1zm12.394-.096c-.06.203-.261 1.757-.448 3.453-.375 3.414-.811 4.781-1.707 5.353-.372.237-.597.69-.597 1.199 0 .74.074.8.791.629 2.108-.5 2.8-1.686 3.417-5.854.216-1.456.394-2.812.395-3.015.001-.256.569-.367 1.873-.367h1.87v9.119h2.015V37.87h-3.751c-2.75 0-3.779.098-3.858.367zm9.912.515c0 .874.016.883 1.583.883h1.583v9.119h2.302v-9.12h1.583c1.567 0 1.583-.008 1.583-.882v-.882h-8.634v.882zM86.92 40.223c.317.324.576.853.576 1.177 0 1.15-1.001 1.764-2.878 1.764H82.89v-3.529h1.727c1.343 0 1.854.13 2.302.588z" fill="#ed2824"/></svg>
